packages/elvis-assets-icons/icons/svg/src/download.svg

<svg width="24" height="24" viewBox="0 0 24 24" fill="none" xmlns="http://www.w3.org/2000/svg">
<g clip-path="url(#clip0)">
<path d="M12.0003 16.5C11.9123 16.5 11.8253 16.484 11.7403 16.453C11.7323 16.45 11.7253 16.448 11.7183 16.445C11.6223 16.406 11.5393 16.351 11.4693 16.28L6.97026 11.78C6.82826 11.639 6.75026 11.45 6.75026 11.25C6.75026 11.05 6.82826 10.861 6.97026 10.72C7.11126 10.578 7.30026 10.5 7.50026 10.5C7.70026 10.5 7.88926 10.578 8.03026 10.72L11.2503 13.94V3.75C11.2503 3.336 11.5863 3 12.0003 3C12.4143 3 12.7503 3.336 12.7503 3.75V13.939L15.9702 10.719C16.1122 10.577 16.3002 10.499 16.5002 10.499C16.7002 10.499 16.8892 10.577 17.0302 10.719C17.1722 10.86 17.2502 11.049 17.2502 11.249C17.2502 11.449 17.1722 11.638 17.0302 11.779L12.5303 16.279C12.4603 16.349 12.3773 16.404 12.2843 16.443C12.2763 16.446 12.2673 16.45 12.2583 16.453C12.1733 16.485 12.0873 16.5 12.0003 16.5Z" fill="black"/>
<path d="M3.75026 21C1.68226 21 0.000267029 19.318 0.000267029 17.25V15.75C0.000267029 15.336 0.336267 15 0.750266 15C1.16427 15 1.50026 15.336 1.50026 15.75V17.25C1.50026 18.491 2.50926 19.5 3.75026 19.5H20.2502C21.4912 19.5 22.5002 18.491 22.5002 17.25V15.75C22.5002 15.336 22.8362 15 23.2502 15C23.6642 15 24.0002 15.336 24.0002 15.75V17.25C24.0002 19.318 22.3182 21 20.2502 21H3.75026Z" fill="black"/>
</g>
<defs>
<clipPath id="clip0">
<path d="M-0.000709534 0H23.9993V24H-0.000709534V0Z" fill="white"/>
</clipPath>
</defs>
</svg>

<svg width="24" height="24" fill="none" xmlns="http://www.w3.org/2000/svg"><g clip-path="url(#clip0)" fill="#000"><path d="M12 16.5a.755.755 0 01-.26-.047l-.022-.008a.732.732 0 01-.249-.165l-4.499-4.5a.743.743 0 01-.22-.53c0-.2.078-.389.22-.53a.743.743 0 01.53-.22c.2 0 .39.078.53.22l3.22 3.22V3.75a.75.75 0 011.5 0v10.189l3.22-3.22a.744.744 0 011.06 0c.142.141.22.33.22.53s-.078.389-.22.53l-4.5 4.5a.763.763 0 01-.246.164l-.026.01A.726.726 0 0112 16.5z"/><path d="M3.75 21A3.754 3.754 0 010 17.25v-1.5a.75.75 0 011.5 0v1.5a2.252 2.252 0 002.25 2.25h16.5a2.252 2.252 0 002.25-2.25v-1.5a.75.75 0 011.5 0v1.5A3.754 3.754 0 0120.25 21H3.75z"/></g><defs><clipPath id="clip0"><path d="M0 0h24v24H0V0z" fill="#fff"/></clipPath></defs></svg>
